optimized/24/outline/position.svg

<svg viewBox="0 0 24 24" fill="none" xmlns="http://www.w3.org/2000/svg">
  <g clip-path="url(#clip0_2208_12333)">
    <path d="M12 9.75C12.4142 9.75 12.75 10.0858 12.75 10.5V13.5C12.75 13.9142 12.4142 14.25 12 14.25C11.5858 14.25 11.25 13.9142 11.25 13.5V10.5C11.25 10.0858 11.5858 9.75 12 9.75Z" fill="#333333"/>
    <path d="M6 7V4.75C6 3.7835 6.7835 3 7.75 3H16.25C17.2165 3 18 3.7835 18 4.75V7H20C21.1046 7 22 7.89543 22 9V20C22 21.1046 21.1046 22 20 22H4C2.89543 22 2 21.1046 2 20V9C2 7.89543 2.89543 7 4 7H6ZM7.5 4.75V7H16.5V4.75C16.5 4.61193 16.3881 4.5 16.25 4.5H7.75C7.61193 4.5 7.5 4.61193 7.5 4.75ZM20 8.5H4C3.72386 8.5 3.5 8.72386 3.5 9V11H9.25C9.66421 11 10 11.3358 10 11.75C10 12.1642 9.66421 12.5 9.25 12.5H3.5V20C3.5 20.2761 3.72386 20.5 4 20.5H20C20.2761 20.5 20.5 20.2761 20.5 20V12.5H14.75C14.3358 12.5 14 12.1642 14 11.75C14 11.3358 14.3358 11 14.75 11H20.5V9C20.5 8.72386 20.2761 8.5 20 8.5Z" fill="#333333"/>
  </g>
  <defs>
    <clipPath id="clip0_2208_12333">
      <rect width="24" height="24" fill="white"/>
    </clipPath>
  </defs>
</svg>

<svg xmlns="http://www.w3.org/2000/svg" width="24" height="24" fill="none">
  <g fill="#333" clip-path="url(#a)">
    <path d="M12 9.75a.75.75 0 0 1 .75.75v3a.75.75 0 0 1-1.5 0v-3a.75.75 0 0 1 .75-.75Z"/>
    <path d="M6 7V4.75C6 3.784 6.784 3 7.75 3h8.5c.966 0 1.75.784 1.75 1.75V7h2a2 2 0 0 1 2 2v11a2 2 0 0 1-2 2H4a2 2 0 0 1-2-2V9a2 2 0 0 1 2-2h2Zm1.5-2.25V7h9V4.75a.25.25 0 0 0-.25-.25h-8.5a.25.25 0 0 0-.25.25ZM20 8.5H4a.5.5 0 0 0-.5.5v2h5.75a.75.75 0 0 1 0 1.5H3.5V20a.5.5 0 0 0 .5.5h16a.5.5 0 0 0 .5-.5v-7.5h-5.75a.75.75 0 0 1 0-1.5h5.75V9a.5.5 0 0 0-.5-.5Z"/>
  </g>
  <defs>
    <clipPath id="a">
      <path fill="#fff" d="M0 0h24v24H0z"/>
    </clipPath>
  </defs>
</svg>
